X:233
T: Uralter Marienruf
N: A0591
O: Europa, Mitteleuropa, Deutschland
N: Oeglin 1512 No. 1.
R: Romanze, Ballade, Lied, religioeses Lied
M: 4/1
L: 1/2
K: G
G2 | _B2B2c2c2 | d2d2d4 |
c3de2=f2 | ede2d2z
d | g2e2=f2d2 | c2_B2A4 |
c2ccc2c2 | d2e2d4 |
c2ccc2c2 | d2e2d4 |
c2_B2c2A2 | G4A4 | G6

